assets/stickers/emoticons/stickers/imgly_sticker_emoticons_smoking.svg

<svg height="58" viewBox="0 0 62 58" width="62" xmlns="http://www.w3.org/2000/svg"><g fill="none"><path d="m61.3 34.5c0 13-11.9 23.5-30.3 23.5s-30.3-10.5-30.3-23.5 11.9-32.5 30.3-32.5 30.3 19.5 30.3 32.5z" fill="#f7910b"/><path d="m61.3 34.5c0 13-11.9 19.5-30.3 19.5s-30.3-6.5-30.3-19.5 11.9-34.5 30.3-34.5 30.3 21.5 30.3 34.5z" fill="#f7910b"/><path d="m31 0c18.4 0 30.3 21.5 30.3 34.5s-11.9 19.5-30.3 19.5" fill="#f9a908"/><path d="m61.3 34.5c0 13-11.9 19.5-30.3 19.5s-30.3-6.5-30.3-19.5 11.9-32.5 30.3-32.5 30.3 19.5 30.3 32.5z" fill="#f9a908"/><path d="m.7 34.5c0-13 11.9-32.5 30.3-32.5" fill="#f9c55d"/><path d="m31 2c18.4 0 30.3 19.5 30.3 32.5s-11.9 23.5-30.3 23.5" fill="#f7910b"/><path d="m37 31c0 2.3-2.8 4.2-6.2 4.2s-6.2-1.9-6.2-4.2 2.8-4.2 6.2-4.2 6.2 1.9 6.2 4.2z" fill="#00233f"/><path d="m31 2c18.4 0 30.3 19.5 30.3 32.5" fill="#ea7103"/><circle cx="9.3" cy="31.5" fill="#f7910b" r="1"/><circle cx="4.8" cy="33.5" fill="#f7910b" r="1.1"/><circle cx="7.8" cy="29.5" fill="#f7910b" r="1"/><circle cx="12.4" cy="31.3" fill="#f7910b" r="1"/><circle cx="51.6" cy="31.8" fill="#f9a908" r="1"/><circle cx="54.1" cy="33.2" fill="#f9a908" r="1"/><circle cx="48.8" cy="24.4" fill="#f9a908" r="1"/><circle cx="48.3" cy="36" fill="#f9a908" r="1.3"/><circle cx="55.5" cy="36.1" fill="#f9a908" r="1"/><circle cx="8.3" cy="35.5" fill="#f7910b" r="1"/><circle cx="9.1" cy="27.1" fill="#f7910b" r="1"/><circle cx="3.8" cy="13.3" fill="#f9a908" r="1.1"/><circle cx="7" cy="9.8" fill="#f9a908" r="1"/><circle cx="58.2" cy="15.7" fill="#f9a908" r="1"/><circle cx="57.4" cy="12.8" fill="#f9a908" r="1"/><path d="m60.5 13.3c0 .3-.2.5-.5.5s-.5-.2-.5-.5.2-.5.5-.5c.2 0 .5.3.5.5z" fill="#f9a908"/><circle cx="5" cy="16.3" fill="#f9a908" r="1"/><path d="m38.4 32c0 2.6-3.3 7.2-7.4 7.2s-7.4-4.6-7.4-7.2" fill="#f7910b"/><g transform="translate(15 11)"><circle cx="4.6" cy="7.3" fill="#d87703" r="3.5"/><path d="m30.9 7.3c0 1.9-1.6 3.5-3.5 3.5s-3.5-1.6-3.5-3.5 1.6-3.5 3.5-3.5c2 0 3.5 1.6 3.5 3.5z" fill="#d87703"/><circle cx="4.6" cy="6.3" fill="#1e4784" r="3.5"/><path d="m4.6 2.8c1.9 0 3.5 1.6 3.5 3.5s-1.6 3.5-3.5 3.5" fill="#00233f"/><path d="m30.9 6.3c0 1.9-1.6 3.5-3.5 3.5s-3.5-1.6-3.5-3.5 1.6-3.5 3.5-3.5c2 0 3.5 1.6 3.5 3.5z" fill="#1e4784"/><path d="m27.4 2.8c1.9 0 3.5 1.6 3.5 3.5s-1.6 3.5-3.5 3.5" fill="#00233f"/><path d="m.5 5.6c0-2.3 1.8-5.1 4.1-5.1s4.1 2.8 4.1 5.1" fill="#f9a908"/><path d="m23.3 5.6c0-2.3 1.8-5.1 4.1-5.1 2.2 0 4.1 2.8 4.1 5.1" fill="#f7910b"/></g><g transform="translate(11 20)"><path d="m15.8 3.1c0 1.2-3.5.7-7.8.7s-7.8.6-7.8-.7 3.5-2.2 7.8-2.2 7.8 1 7.8 2.2z" fill="#f9c55d"/><path d="m39.8 3.1c0 1.2-3.5.7-7.8.7s-7.8.6-7.8-.7 3.5-2.2 7.8-2.2 7.8 1 7.8 2.2z" fill="#f9a908"/></g><g fill="#19bca4" transform="translate(15 11)"><path d="m10.2 2.5c0 1.1-2.3.5-5.1.4s-5.1.4-5.1-.7 2.3-2 5.1-1.9c2.9.1 5.2 1.1 5.1 2.2z"/><path d="m21.8 2.5c0 1.1 2.3.5 5.1.4s5.1.4 5.1-.7-2.3-2-5.1-1.9c-2.9.1-5.2 1.1-5.1 2.2z"/></g><g transform="translate(5 27)"><path d="m23.3 2.6c.5 1.1.1 2.4-1 2.9l-18.2 9c-1.1.5-2.4.1-2.9-1-.5-1.1-.1-2.4 1-3l18.2-9c1-.5 2.3 0 2.9 1.1z" fill="#fffdf3"/><path d="m23.3 2.6c.5 1.1.1 2.4-1 2.9l-18.2 9c-1.1.5-2.4.1-2.9-1" fill="#dff6f7"/><path d="m2 10.7c-1 .6-1.4 1.8-.9 2.9.5 1 1.8 1.5 2.8 1 1-.6 1.4-1.8.9-2.9-.5-1-1.8-1.5-2.8-1z" fill="#f7552f"/><path d="m3.9 14.6c1-.6 1.4-1.8.9-2.9-.5-1-1.8-1.5-2.8-1" fill="#e03405"/><path d="m21.1 1.2-8.6 4.3c1.1-.5 2.4-.1 2.9 1s.1 2.4-1 2.9l8.6-4.3c1.1-.5 1.5-1.9 1-2.9-.5-1.1-1.8-1.6-2.9-1z" fill="#754108"/><path d="m20.3 1.6-8.6 4.3c1.1-.5 2.4-.1 2.9 1s.1 2.4-1 3l8.6-4.3c1.1-.5 1.5-1.9 1-2.9-.5-1.2-1.8-1.7-2.9-1.1z" fill="#935914"/><path d="m11.7 5.8c1.1-.5 2.4-.1 2.9 1s.1 2.4-1 3l8.6-4.3c1.1-.5 1.5-1.9 1-2.9" fill="#754108"/><path d="m16.7 5.8c-.5-1.1-1.9-1.5-3-1l-2.3 1.2c1.1-.5 2.4-.1 2.9 1s.1 2.4-1 2.9l2.3-1.2c1.2-.5 1.7-1.8 1.1-2.9z" fill="#dff6f7"/></g><g fill="#fffdf3"><path d="m8.5 27.6c0 .4-.3.8-.8.8-.4-.1-.7-.4-.7-.8v-8c0-.4.3-.8.8-.8.4 0 .8.3.8.8v8z"/><path d="m11.6 33.7c0 .4-.3.8-.8.8-.4 0-.8-.3-.8-.8v-8c0-.4.3-.8.8-.8.4 0 .8.3.8.8z"/><circle cx="5" cy="30.3" r="1"/><circle cx="9.7" cy="16.7" r="1"/><circle cx="7.7" cy="33.8" r="1"/><circle cx="9.2" cy="12.5" r="1.8"/><circle cx="4.8" cy="26.2" r="1"/><circle cx="5" cy="35.9" r="1"/><circle cx="10.1" cy="22.5" r="1"/></g></g></svg>

<?xml version="1.0" encoding="UTF-8"?>
<svg width="62px" height="58px" viewBox="0 0 62 58" version="1.1" xmlns="http://www.w3.org/2000/svg" xmlns:xlink="http://www.w3.org/1999/xlink">
    <!-- Generator: Sketch 43.1 (39012) - http://www.bohemiancoding.com/sketch -->
    <title>imgly_sticker_emoticons_smoking</title>
    <desc>Created with Sketch.</desc>
    <defs></defs>
    <g id="Page-1" stroke="none" stroke-width="1" fill="none" fill-rule="evenodd">
        <g id="smoking" fill-rule="nonzero">
            <g id="Group">
                <g>
                    <path d="M61.3,34.5 C61.3,47.5 49.4,58 31,58 C12.6,58 0.7,47.5 0.7,34.5 C0.7,21.5 12.6,2 31,2 C49.4,2 61.3,21.5 61.3,34.5 Z" id="Shape" fill="#F7910B"></path>
                    <path d="M61.3,34.5 C61.3,47.5 49.4,54 31,54 C12.6,54 0.7,47.5 0.7,34.5 C0.7,21.5 12.6,0 31,0 C49.4,0 61.3,21.5 61.3,34.5 Z" id="Shape" fill="#F7910B"></path>
                    <path d="M31,0 C49.4,0 61.3,21.5 61.3,34.5 C61.3,47.5 49.4,54 31,54" id="Shape" fill="#F9A908"></path>
                    <path d="M61.3,34.5 C61.3,47.5 49.4,54 31,54 C12.6,54 0.7,47.5 0.7,34.5 C0.7,21.5 12.6,2 31,2 C49.4,2 61.3,21.5 61.3,34.5 Z" id="Shape" fill="#F9A908"></path>
                    <path d="M0.7,34.5 C0.7,21.5 12.6,2 31,2" id="Shape" fill="#F9C55D"></path>
                    <path d="M31,2 C49.4,2 61.3,21.5 61.3,34.5 C61.3,47.5 49.4,58 31,58" id="Shape" fill="#F7910B"></path>
                    <path d="M37,31 C37,33.3 34.2,35.2 30.8,35.2 C27.4,35.2 24.6,33.3 24.6,31 C24.6,28.7 27.4,26.8 30.8,26.8 C34.2,26.8 37,28.7 37,31 Z" id="Shape" fill="#00233F"></path>
                    <path d="M31,2 C49.4,2 61.3,21.5 61.3,34.5" id="Shape" fill="#EA7103"></path>
                    <circle id="Oval" fill="#F7910B" cx="9.3" cy="31.5" r="1"></circle>
                    <circle id="Oval" fill="#F7910B" cx="4.8" cy="33.5" r="1.1"></circle>
                    <circle id="Oval" fill="#F7910B" cx="7.8" cy="29.5" r="1"></circle>
                    <circle id="Oval" fill="#F7910B" cx="12.4" cy="31.3" r="1"></circle>
                    <circle id="Oval" fill="#F9A908" cx="51.6" cy="31.8" r="1"></circle>
                    <circle id="Oval" fill="#F9A908" cx="54.1" cy="33.2" r="1"></circle>
                    <circle id="Oval" fill="#F9A908" cx="48.8" cy="24.4" r="1"></circle>
                    <circle id="Oval" fill="#F9A908" cx="48.3" cy="36" r="1.3"></circle>
                    <circle id="Oval" fill="#F9A908" cx="55.5" cy="36.1" r="1"></circle>
                    <circle id="Oval" fill="#F7910B" cx="8.3" cy="35.5" r="1"></circle>
                    <circle id="Oval" fill="#F7910B" cx="9.1" cy="27.1" r="1"></circle>
                    <circle id="Oval" fill="#F9A908" cx="3.8" cy="13.3" r="1.1"></circle>
                    <circle id="Oval" fill="#F9A908" cx="7" cy="9.8" r="1"></circle>
                    <circle id="Oval" fill="#F9A908" cx="58.2" cy="15.7" r="1"></circle>
                    <circle id="Oval" fill="#F9A908" cx="57.4" cy="12.8" r="1"></circle>
                    <path d="M60.5,13.3 C60.5,13.6 60.3,13.8 60,13.8 C59.7,13.8 59.5,13.6 59.5,13.3 C59.5,13 59.7,12.8 60,12.8 C60.2,12.8 60.5,13.1 60.5,13.3 Z" id="Shape" fill="#F9A908"></path>
                    <circle id="Oval" fill="#F9A908" cx="5" cy="16.3" r="1"></circle>
                    <path d="M38.4,32 C38.4,34.6 35.1,39.2 31,39.2 C26.9,39.2 23.6,34.6 23.6,32" id="Shape" fill="#F7910B"></path>
                    <g transform="translate(15.000000, 11.000000)">
                        <circle id="Oval" fill="#D87703" cx="4.6" cy="7.3" r="3.5"></circle>
                        <path d="M30.9,7.3 C30.9,9.2 29.3,10.8 27.4,10.8 C25.5,10.8 23.9,9.2 23.9,7.3 C23.9,5.4 25.5,3.8 27.4,3.8 C29.4,3.8 30.9,5.4 30.9,7.3 Z" id="Shape" fill="#D87703"></path>
                        <circle id="Oval" fill="#1E4784" cx="4.6" cy="6.3" r="3.5"></circle>
                        <path d="M4.6,2.8 C6.5,2.8 8.1,4.4 8.1,6.3 C8.1,8.2 6.5,9.8 4.6,9.8" id="Shape" fill="#00233F"></path>
                        <path d="M30.9,6.3 C30.9,8.2 29.3,9.8 27.4,9.8 C25.5,9.8 23.9,8.2 23.9,6.3 C23.9,4.4 25.5,2.8 27.4,2.8 C29.4,2.8 30.9,4.4 30.9,6.3 Z" id="Shape" fill="#1E4784"></path>
                        <path d="M27.4,2.8 C29.3,2.8 30.9,4.4 30.9,6.3 C30.9,8.2 29.3,9.8 27.4,9.8" id="Shape" fill="#00233F"></path>
                        <path d="M0.5,5.6 C0.5,3.3 2.3,0.5 4.6,0.5 C6.9,0.5 8.7,3.3 8.7,5.6" id="Shape" fill="#F9A908"></path>
                        <path d="M23.3,5.6 C23.3,3.3 25.1,0.5 27.4,0.5 C29.6,0.5 31.5,3.3 31.5,5.6" id="Shape" fill="#F7910B"></path>
                    </g>
                    <g transform="translate(11.000000, 20.000000)" id="Shape">
                        <path d="M15.8,3.1 C15.8,4.3 12.3,3.8 8,3.8 C3.7,3.8 0.2,4.4 0.2,3.1 C0.2,1.8 3.7,0.9 8,0.9 C12.3,0.9 15.8,1.9 15.8,3.1 Z" fill="#F9C55D"></path>
                        <path d="M39.8,3.1 C39.8,4.3 36.3,3.8 32,3.8 C27.7,3.8 24.2,4.4 24.2,3.1 C24.2,1.8 27.7,0.9 32,0.9 C36.3,0.9 39.8,1.9 39.8,3.1 Z" fill="#F9A908"></path>
                    </g>
                    <g transform="translate(15.000000, 11.000000)" id="Shape" fill="#19BCA4">
                        <path d="M10.2,2.5 C10.2,3.6 7.9,3 5.1,2.9 C2.3,2.8 0,3.3 0,2.2 C0,1.1 2.3,0.2 5.1,0.3 C8,0.4 10.3,1.4 10.2,2.5 Z"></path>
                        <path d="M21.8,2.5 C21.8,3.6 24.1,3 26.9,2.9 C29.7,2.8 32,3.3 32,2.2 C32,1.1 29.7,0.2 26.9,0.3 C24,0.4 21.7,1.4 21.8,2.5 Z"></path>
                    </g>
                </g>
                <g transform="translate(5.000000, 27.000000)" id="Shape">
                    <path d="M23.3,2.6 C23.8,3.7 23.4,5 22.3,5.5 L4.1,14.5 C3,15 1.7,14.6 1.2,13.5 L1.2,13.5 C0.7,12.4 1.1,11.1 2.2,10.5 L20.4,1.5 C21.4,1 22.7,1.5 23.3,2.6 L23.3,2.6 Z" fill="#FFFDF3"></path>
                    <path d="M23.3,2.6 L23.3,2.6 C23.8,3.7 23.4,5 22.3,5.5 L4.1,14.5 C3,15 1.7,14.6 1.2,13.5 L1.2,13.5" fill="#DFF6F7"></path>
                    <path d="M2,10.7 C1,11.3 0.6,12.5 1.1,13.6 C1.6,14.6 2.9,15.1 3.9,14.6 C4.9,14 5.3,12.8 4.8,11.7 C4.3,10.7 3,10.2 2,10.7 Z" fill="#F7552F"></path>
                    <path d="M3.9,14.6 C4.9,14 5.3,12.8 4.8,11.7 C4.3,10.7 3,10.2 2,10.7" fill="#E03405"></path>
                    <path d="M21.1,1.2 L12.5,5.5 C13.6,5 14.9,5.4 15.4,6.5 C15.9,7.6 15.5,8.9 14.4,9.4 L23,5.1 C24.1,4.6 24.5,3.2 24,2.2 C23.5,1.1 22.2,0.6 21.1,1.2 Z" fill="#754108"></path>
                    <path d="M20.3,1.6 L11.7,5.9 C12.8,5.4 14.1,5.8 14.6,6.9 C15.1,8 14.7,9.3 13.6,9.9 L22.2,5.6 C23.3,5.1 23.7,3.7 23.2,2.7 C22.7,1.5 21.4,1 20.3,1.6 Z" fill="#935914"></path>
                    <path d="M11.7,5.8 C12.8,5.3 14.1,5.7 14.6,6.8 C15.1,7.9 14.7,9.2 13.6,9.8 L22.2,5.5 C23.3,5 23.7,3.6 23.2,2.6" fill="#754108"></path>
                    <path d="M16.7,5.8 C16.2,4.7 14.8,4.3 13.7,4.8 L11.4,6 C12.5,5.5 13.8,5.9 14.3,7 C14.8,8.1 14.4,9.4 13.3,9.9 L15.6,8.7 C16.8,8.2 17.3,6.9 16.7,5.8 Z" fill="#DFF6F7"></path>
                </g>
            </g>
            <path d="M8.5,27.6 C8.5,28 8.2,28.4 7.7,28.4 L7.7,28.4 C7.3,28.3 7,28 7,27.6 L7,19.6 C7,19.2 7.3,18.8 7.8,18.8 L7.8,18.8 C8.2,18.8 8.6,19.1 8.6,19.6 L8.6,27.6 L8.5,27.6 Z" id="Shape" fill="#FFFDF3"></path>
            <path d="M11.6,33.7 C11.6,34.1 11.3,34.5 10.8,34.5 L10.8,34.5 C10.4,34.5 10,34.2 10,33.7 L10,25.7 C10,25.3 10.3,24.9 10.8,24.9 L10.8,24.9 C11.2,24.9 11.6,25.2 11.6,25.7 L11.6,33.7 Z" id="Shape" fill="#FFFDF3"></path>
            <circle id="Oval" fill="#FFFDF3" cx="5" cy="30.3" r="1"></circle>
            <circle id="Oval" fill="#FFFDF3" cx="9.7" cy="16.7" r="1"></circle>
            <circle id="Oval" fill="#FFFDF3" cx="7.7" cy="33.8" r="1"></circle>
            <circle id="Oval" fill="#FFFDF3" cx="9.2" cy="12.5" r="1.8"></circle>
            <circle id="Oval" fill="#FFFDF3" cx="4.8" cy="26.2" r="1"></circle>
            <circle id="Oval" fill="#FFFDF3" cx="5" cy="35.9" r="1"></circle>
            <circle id="Oval" fill="#FFFDF3" cx="10.1" cy="22.5" r="1"></circle>
        </g>
    </g>
</svg>
